X:24
T:Maid of Ardagh
T:Toormore No. 2
N:For teaching purposes from Alan Ng
Z: id:ng-other-24 Transcribed by Alan Ng alan@alan-ng.nospam (net) 2 Feb. 2005
M:2/4
L:1/8
K:D
E:11
|F>A BA|de f2|fe/f/ gc|ed B/A/G|\
|F>A BA|de f2|fe/f/ gc|ed d2:|*
|ef/e/ ce|fe a2|ef/e/ ce|fe c/B/A|\
|ef/e/ ce|fe a2|ef/e/ cB|BA A2:|**
